X:1
T:Come Away to the Skies
T:Come Away to the Skies
T:Southern Harmony, arrr by Liland Ros’
T:Charles Wesley, 1755
T:Public Domain Courtesy of the Cyber Hymnal™
T:Public Domain Courtesy of the Cyber Hymnal™
C:Southern Harmony, arrr by Liland Ros’
Z:Public Domain
Z:Courtesy of the Cyber Hymnal™
%%score 1 2 3 4
L:1/8
Q:1/4=105
M:4/8
K:Eb
V:1 treble 
V:2 treble 
V:3 bass 
V:4 bass 
V:1
!f! B,B, | E2 EE | (EG)FE | F2 FF | (FA)GF | E2 EE | (EG)FE | B,4- | B,2 GA | B2 ec | B2 FG | %11
w: 1.~Come a-|way to the|skies, * my be-|lov- èd, a-|rise * And re-|joice in the|day * thou wast|born;|* On this|fes- ti- val|day, come ex-|
w: 2.~Now with|sing- ing and|praise * let us|spend all the|days * By our|heav- en- ly|Fa- * ther be-|stowed,|* While His|grace we re-|ceive from His|
w: 3.~For the|glo- ry we|were * first cre-|at- ed to|share, * Both the|na- ture and|king- * dom di-|vine,|* Now cre-|at- ed a-|gain that our|
w: 4.~We with|thanks do ap-|prove * the de-|sign Of that|love * that hath|joined us to|Je- * su- s’|Name;|* Now u-|ni- ted in|heart, let us|
w: 5.~Hal- le-|lu- jah! we|sing * to our|Fa- ther and|King, * And His|rap- tur- ous|prais- * es re-|peat:|* To the|Lamb that was|slain, Hal- le-|
 (Ac)BA | G2 EG | B2 GE | (CA)FD | E4- | E2 |] %17
w: ult- * ing a-|way, And with|sing- ing to|Zi- * on re-|turn.||
w: boun- * ty, and|live To the|hon- or and|glo- * ry of|God!||
w: lives * may re-|main Through- out|time and e-|tern- * i- ty|Thine.||
w: ne- * ver more|part, Till we|meet at the|feast * of the|Lamb.||
w: lu- * jah a-|gain! Sing all|heav- en and|fall * at His|feet!||
V:2
!mf! B,B, | B,2 B,B, | (B,E)EE | C2 CC | (D2 D)D | E2 B,B, | (C2 C)C | B,4- | B,2 EE | E2 EF | %10
 G2 FE | (F2 F)F | E2 EE | D2 EB, | (C2 D)D | B,4- | B,2 |] %17
V:3
!mf! B,B, | G,2 G,G, | (G,B,)A,G, | A,2 A,A, | (A,2 B,)A, | G,2 G,G, | (G,E,)F,F, | D,4 | %8
 F,2 B,B, | B,2 CD | E2 DE | (CA,)B,B, | B,2 E,E, | G,2 B,G, | (F,2 A,)A, | G,4- | [E,G,]2 |] %17
V:4
!mp! B,,B,, | E,2 E,E, | (E,2 C,)C, | F,2 F,F, | (B,,2 B,,)B,, | E,2 E,D, | (C,2 A,,)A,, | B,,4 | %8
 [B,,D,]2 E,F, | G,2 A,A, | E,2 A,G, | (F,2 D,)D, | E,2 C,C, | G,,2 G,,G,, | (A,,2 B,,)B,, | E,4- | %16
 [E,G,]2 |] %17

